assets/images/facebook.svg

<svg width="24" height="24" viewBox="0 0 24 24" fill="none" xmlns="http://www.w3.org/2000/svg">
<path d="M12 2.04004C6.5 2.04004 2 6.53004 2 12.06C2 17.06 5.66 21.21 10.44 21.96V14.96H7.9V12.06H10.44V9.85004C10.44 7.34004 11.93 5.96004 14.22 5.96004C15.31 5.96004 16.45 6.15004 16.45 6.15004V8.62004H15.19C13.95 8.62004 13.56 9.39004 13.56 10.18V12.06H16.34L15.89 14.96H13.56V21.96C15.9164 21.5879 18.0622 20.3856 19.6099 18.5701C21.1576 16.7546 22.0053 14.4457 22 12.06C22 6.53004 17.5 2.04004 12 2.04004V2.04004Z" fill="white"/>
</svg>

<svg width="24" height="24" fill="none" xmlns="http://www.w3.org/2000/svg"><path d="M12 2.04c-5.5 0-10 4.49-10 10.02 0 5 3.66 9.15 8.44 9.9v-7H7.9v-2.9h2.54V9.85c0-2.51 1.49-3.89 3.78-3.89 1.09 0 2.23.19 2.23.19v2.47h-1.26c-1.24 0-1.63.77-1.63 1.56v1.88h2.78l-.45 2.9h-2.33v7a10 10 0 008.44-9.9c0-5.53-4.5-10.02-10-10.02z" fill="#fff"/></svg>
